X: 5345
T: Buain Na' Rainich
R: polka
M: 2/4
K: Edorian
|:E2e2|dBd2|BA FE|DE FD|
E2e2|dBd2|BA FD|1 E2B,D:|2 E2E2||
|:BA FE|DE FA|BA FE|F2F2|
BA FE|DE FA|BA dF|E2E2:|

